X: 240
T: Ku qi
%%abc-version 2.0
%%abcx-abcm2ps-target-version 5.9.1 (29 Sep 2008)
%%abc-creator hum2abc beta
%%abcx-conversion-date 2013/10/02 07:52:29
%%abc-edited-by Helmut Schaffrath
%%humdrum-veritas 693801757
%%humdrum-veritas-data 1704729097
%%continueall 1
%%barnumbers 0
L: 1/8
M: 2/4
K: G
G2G A [I:setbarnb 1]| 
d2z2 | 
c4 | 
d2c B | 
A2z2 | 
G2G A | 
d2z2 | 
c4 | 
d2c B | 
A2z2 | 
d dc2 | 
A c A G | 
A c G A | 
d2A G | 
A G =F E | 
D2z2 | 
G2G A | 
d4 | 
c3B | 
A G F E | 
D4 | 
A G =F E | 
D2z2 | 
A2d2 | 
A d A G | 
A G =F E | 
D3C | 
D2z2 |]  



